X:1
T:Partition sans titre
C:Compositeur / Arrangeur
L:1/8
M:4/4
I:linebreak $
K:G
V:1 treble nm="Violon" snm="Vln."
V:1
 GA |"G" B2 B2"C" cBce |"G" d2 dc BGBd |"D7" cBcA FDFA |"G" Addc BGDG |"G" B2 B2"C" cBce | %6
"G" d2 dc BGBd |"D7" cBcA FDFA |"G" G2 G2 G2 :: Bd |"C" gagf ecge |"G" d2 dc BABd |"D7" cBcA FDFA | %13
"G" Addc BGBd |"C" gagf ecge |"G" d2 dc BABd |"D7" cBcA FDFA |"G" G2 G2 G2 :| %18
